!!!COM: Johannes Brahms
!!!CNT: Deutscher
!!!TXO: Deutsche
!!!OTL: Der Kuss
!!!OPS: Op. 19
!!!ONM: No. 1
!!!LYR: Ho2lty
!!!ONB: Original key: B major
!!!ENC: Ayako Kataoka        
!!!EED: Leigh VanHandel
!!!YOR: C.F. Peters, Brahms Lieder fu2r eine Singstimme mit Klavierbegleitung, Band III, ausgabe fu2r tiefere Stimme
!!!ODT: 1858/
!!NB: Vocal melody and text only encoded.
**kern	**silbe
*clefG2	*
*k[f#]	*
*M3/8	*
*MM35	*
!! tempo indication: adagio (quarter = half adagio = 35)
=3	=3
8r	.
{8d	{Un-
8d	-ter
=4	=4
8g	Blu2-
8a	-ten
8b	des
=5	=5
(8g	Mai's
8f#)	|
8e	spielt
=6	=6
(8d	ich
8e)	|
8f#	mit
=7	=7
(8g	ih-
8a)	|
8b	-rer
=8	=8
(4cc	Hand,
8b)}	|}
=9	=9
{(8b	{kos-
8cc)	|
8dd	-te
=10	=10
(8b	lie-
8a)	|
8g-}	bend,}
=11	=11
{(8f#	{kos-
8g)	|
8a	-te
=12	=12
8b	lie-
8cc	-bend
8dd	mit
=13	=13
(4ee	ihr,
8cc)}	|}
=14	=14
{8a	{schau-
8a	-te
8b	mein
=5	=5
8cc	schwe-
8cc	-ben
8cc	des
=16	=16
4cc	Bild
8cc	im
=17	=17
8cc	Au-
8b	-ge
8b-	des
=18	=18
4a	Ma2d-
8g}	-chens,}
=19	=19
8r	.
{8f#	{raubt
8a	ihr
=20	=20
8dd	be-
8dd	-bend
8a	den
=21	=21
4f#	er-
8e	-sten
=22	=22
4d}	Kuss.}
8r	.
=24	=24
{4ee	{Zu-
8cc	-ckend
=25	=25
8b	fliegt
8cc	nun
8dd	der
=26	=26
4cc}	Kuss}
8r	.
=27	=27
{8f#	{wie
8g	ein
8a	ver-
=28	=28
4b	-sen-
8g	-gend
=29	=29
4f#}	Feur}
8r	.
=30	=30
{4ff#	{mir
8dd	durch
=31	=31
8cc#	Mark
8dd	und
8ee	Ge-
=32	=32
4dd}	-bein.}
8r	.
=34	=34
{8a	{Du,
8a	die
8b	Un-
=35	=35
4cc	-sterb-
8cc	-lich-
=36	=36
8cc	-keit
8cc	durch
8cc	die
=37	=37
8cc	Lip-
8b	-pen
8b-	mir
=38	=38
4a	spru2h-
8g}	-te,}
=39	=39
8r	.
{8f#	{we-
8a	-he
=40	=40
8dd	we-
8dd	-he
8a	mir
=41	=41
4f#	Ku2h-
8e	-lung
=42	=42
4d}	zu,}
8r	.
=43	=43
{([4.cc	{Ku2h-
=43	=43
8cc]	|
8b)	|
8a	-lung
=45	=45
(8b	zu!
[4dd	|
=46	=46
4.dd_	|
=47	=47
4dd])}	|}
8r	.
*-	*-
